storage/app/icons/phosphoricons/regular/selection-slash.svg

<svg xmlns="http://www.w3.org/2000/svg" fill="currentColor" viewBox="0 0 256 256"><path d="M104 40a8 8 0 0 1 8-8h32a8 8 0 0 1 0 16h-32a8 8 0 0 1-8-8m40 168h-32a8 8 0 0 0 0 16h32a8 8 0 0 0 0-16m64-176h-24a8 8 0 0 0 0 16h24v24a8 8 0 0 0 16 0V48a16 16 0 0 0-16-16m8 72a8 8 0 0 0-8 8v32a8 8 0 0 0 16 0v-32a8 8 0 0 0-8-8M40 152a8 8 0 0 0 8-8v-32a8 8 0 0 0-16 0v32a8 8 0 0 0 8 8m32 56H48v-24a8 8 0 0 0-16 0v24a16 16 0 0 0 16 16h24a8 8 0 0 0 0-16M53.92 34.62a8 8 0 1 0-11.84 10.76l160 176a8 8 0 1 0 11.84-10.76Z"/></svg>

<svg xmlns="http://www.w3.org/2000/svg" viewBox="0 0 256 256" fill="currentColor"><path d="M104,40a8,8,0,0,1,8-8h32a8,8,0,0,1,0,16H112A8,8,0,0,1,104,40Zm40,168H112a8,8,0,0,0,0,16h32a8,8,0,0,0,0-16ZM208,32H184a8,8,0,0,0,0,16h24V72a8,8,0,0,0,16,0V48A16,16,0,0,0,208,32Zm8,72a8,8,0,0,0-8,8v32a8,8,0,0,0,16,0V112A8,8,0,0,0,216,104ZM40,152a8,8,0,0,0,8-8V112a8,8,0,0,0-16,0v32A8,8,0,0,0,40,152Zm32,56H48V184a8,8,0,0,0-16,0v24a16,16,0,0,0,16,16H72a8,8,0,0,0,0-16ZM53.92,34.62A8,8,0,1,0,42.08,45.38l160,176a8,8,0,1,0,11.84-10.76Z"/></svg>
